X:757
T:Reel 757
M:4/4
K:Gmaj
L:1/8
GBAB G2ED|FGAB c2Bc|dcAG G2GA|BGAF GFGE|FEFG A2Bc|dBcd BGAc|dBAB GFGA|Bdef g2fg|agab c'2bg| (3abc' bg a2ag|eg (3fgf g2gb|abc'e' d'2d'b|abag a2bg|abc'd' bgg2| (3aba bg abc'a|d'bab gedB|
